wp-content/plugins/sitepress-multilingual-cms/res/flags/dk.svg

<svg width="32" height="32" viewBox="0 0 32 32" fill="none" xmlns="http://www.w3.org/2000/svg">
<path d="M30 5.33331H2C0.895431 5.33331 0 6.22874 0 7.33331V24.6669C0 25.7714 0.895431 26.6669 2 26.6669H30C31.1046 26.6669 32 25.7714 32 24.6669V7.33331C32 6.22874 31.1046 5.33331 30 5.33331Z" fill="#FF4B55"/>
<path d="M12 5.33313H8V13.9997H0V17.9997H8V26.6664H12V17.9997H32V13.9997H12V5.33313Z" fill="#F0F0F0"/>
</svg>

<svg xmlns="http://www.w3.org/2000/svg" width="32" height="32" fill="none"><path fill="#FF4B55" d="M30 5.333H2a2 2 0 0 0-2 2v17.334a2 2 0 0 0 2 2h28a2 2 0 0 0 2-2V7.333a2 2 0 0 0-2-2Z"/><path fill="#F0F0F0" d="M12 5.333H8V14H0v4h8v8.666h4V18h20v-4H12V5.333Z"/></svg>
